packages/sources/icons/src/vitamix/selected-by-decathlon-line.svg

<svg width="16" height="16" viewBox="0 0 16 16" xmlns="http://www.w3.org/2000/svg"><path d="M7.35657 13.3333C4.40209 13.3333 2.00701 10.9455 2.00701 7.99998C2.00701 5.05446 4.40209 2.66665 7.35657 2.66665C10.311 2.66665 12.7061 5.05446 12.7061 7.99998C12.7061 8.70498 12.5689 9.37803 12.3197 9.99404H13.7393C13.937 9.36441 14.0435 8.6946 14.0435 7.99998C14.0435 4.31808 11.0497 1.33331 7.35657 1.33331C3.66347 1.33331 0.669617 4.31808 0.669617 7.99998C0.669617 11.6819 3.66347 14.6666 7.35657 14.6666C7.97227 14.6666 8.56854 14.5837 9.13475 14.4284V13.0316C8.57842 13.227 7.97994 13.3333 7.35657 13.3333Z"/><path d="M14.3185 10.7009L15.3363 11.6552L12.1455 14.6492L9.95804 12.5966L10.9753 11.6421L12.1455 12.7401L14.3185 10.7009Z"/><path d="M5.56156 5.66665C6.3586 5.66665 6.91568 5.76466 7.43839 6.22412C7.8138 6.55322 8.05117 6.99958 8.13632 7.5467L8.13606 5.66665H10.8672V6.69328L9.36469 6.69494V7.45736L10.6657 7.45623V8.45979L9.36469 8.46108V9.30691H10.8672V10.3302H8.13606L8.13642 8.46975C8.05247 8.98013 7.8195 9.41161 7.44396 9.75575C6.90852 10.2406 6.43567 10.3333 5.72974 10.3333H3.84592V5.66665H5.56156ZM5.56156 6.67015H5.07405V9.30843H5.56713C6.50678 9.30843 6.95088 8.90241 6.95088 7.98408C6.95088 7.14379 6.46338 6.67015 5.56156 6.67015Z"/></svg>

<svg width="16" height="16" xmlns="http://www.w3.org/2000/svg"><path d="M7.357 13.333c-2.955 0-5.35-2.388-5.35-5.333 0-2.946 2.395-5.333 5.35-5.333 2.954 0 5.35 2.387 5.35 5.333 0 .705-.138 1.378-.387 1.994h1.42c.197-.63.303-1.3.303-1.994 0-3.682-2.993-6.667-6.686-6.667C3.663 1.333.67 4.318.67 8s2.993 6.667 6.687 6.667c.615 0 1.212-.083 1.778-.239v-1.396a5.356 5.356 0 0 1-1.778.301Z"/><path d="m14.319 10.7 1.017.955-3.19 2.994-2.188-2.052 1.017-.955 1.17 1.098 2.174-2.04ZM5.562 5.667c.797 0 1.354.098 1.876.557.376.33.613.776.698 1.323v-1.88h2.731v1.026l-1.502.002v.762h1.3V8.46l-1.3.001v.846h1.502v1.023h-2.73V8.47c-.085.51-.318.942-.693 1.286-.535.485-1.008.577-1.714.577H3.846V5.667h1.716Zm0 1.003h-.488v2.638h.493c.94 0 1.384-.406 1.384-1.324 0-.84-.488-1.314-1.39-1.314Z"/></svg>
